icon-themes/breeze_svg/cmd/sc_heading3parastyle.svg

<svg viewBox="0 0 16 16" xmlns="http://www.w3.org/2000/svg"><path d="m2 2v12h2v-5h4v5h2v-12h-2v5h-4v-5z" fill="#4d4d4d"/><path d="m12.892578 8c-.729907 0-1.357756.1909851-1.884766.5742188l.564454.8515624c.239789-.1570193.45735-.268159.652343-.3320312.197629-.063872.392308-.0957031.582032-.0957031.548089 0 .822265.2203262.822265.6621093 0 .2874251-.104331.4915678-.3125.6113278-.205534.1171-.532512.175782-.980468.175782h-.447266v.945312h.439453c.484849 0 .83725.05744 1.058594.171875.221343.114438.332031.309866.332031.583985 0 .306053-.09475.527625-.287109.666015s-.49137.207031-.894532.207031c-.263504 0-.530053-.03556-.798828-.107422-.268775-.071855-.514302-.164859-.738281-.279296v1.050781c.484848.210246 1.040828.314453 1.667969.314453.748352 0 1.3234-.15542 1.726562-.466797.403163-.314038.605469-.752909.605469-1.314453 0-.385895-.119586-.691754-.359375-.917969-.239789-.228877-.594144-.371139-1.060547-.429687v-.025391c.395256-.09581.703166-.269902.921875-.525391.218709-.255488.328125-.5670359.328125-.9316401 0-.4364606-.173658-.7766407-.521484-1.0214844-.345192-.2448447-.81786-.3671875-1.416016-.3671875z" fill="#1d99f3"/></svg>

<svg xmlns="http://www.w3.org/2000/svg" viewBox="0 0 16 16">
 <path 
     style="fill:#4d4d4d" 
     d="M 2 2 L 2 14 L 4 14 L 4 9 L 8 9 L 8 14 L 10 14 L 10 2 L 8 2 L 8 7 L 4 7 L 4 2 L 2 2 z "
     />
 <path 
     style="fill:#1d99f3" 
     d="M 12.892578 8 C 12.162671 8 11.534822 8.1909851 11.007812 8.5742188 L 11.572266 9.4257812 C 11.812055 9.2687619 12.029616 9.1576222 12.224609 9.09375 C 12.422238 9.029878 12.616917 8.9980469 12.806641 8.9980469 C 13.35473 8.9980469 13.628906 9.2183731 13.628906 9.6601562 C 13.628906 9.9475813 13.524575 10.151724 13.316406 10.271484 C 13.110872 10.388584 12.783894 10.447266 12.335938 10.447266 L 11.888672 10.447266 L 11.888672 11.392578 L 12.328125 11.392578 C 12.812974 11.392578 13.165375 11.450018 13.386719 11.564453 C 13.608062 11.678891 13.71875 11.874319 13.71875 12.148438 C 13.71875 12.454491 13.624 12.676063 13.431641 12.814453 C 13.239282 12.952843 12.940271 13.021484 12.537109 13.021484 C 12.273605 13.021484 12.007056 12.985924 11.738281 12.914062 C 11.469506 12.842207 11.223979 12.749203 11 12.634766 L 11 13.685547 C 11.484848 13.895793 12.040828 14 12.667969 14 C 13.416321 14 13.991369 13.84458 14.394531 13.533203 C 14.797694 13.219165 15 12.780294 15 12.21875 C 15 11.832855 14.880414 11.526996 14.640625 11.300781 C 14.400836 11.071904 14.046481 10.929642 13.580078 10.871094 L 13.580078 10.845703 C 13.975334 10.749893 14.283244 10.575801 14.501953 10.320312 C 14.720662 10.064824 14.830078 9.7532761 14.830078 9.3886719 C 14.830078 8.9522113 14.65642 8.6120312 14.308594 8.3671875 C 13.963402 8.1223428 13.490734 8 12.892578 8 z "
     />
 </svg>
